X:132
T:Auld Lang Syne. JGi.132
M:C
L:1/8
Q:1/4=90
S:Joshua Gibbons MS,1823,Tealby,Lincs.
R:song
C:No 32
O:Tealby,Lincolnshire
Z:VMP/R.Greig, 2009
K:C
G|c>dc>e d>cd>e|d<e e>ga3c’|g<e e>c d>cd>e|c<A A<Gc3:|
|:a|g<e e<c d>cd>e|g>e e<ga3c’|g<e e<c d>cd>e|c<A A<Fc2:|

